X: 305800
M: 2/4
L: 1/16
K: C
gf |\
e2g2 c2g2 | ag^fg agfg e2c2 | a2c2 A2d2 | B2G2G2 gf |\
e2g2 c2e2 | FdEc A2a2 | g2G2 A2B2 | c2c2c2 H|]
EF |\


